symbols/web/delete_sweep/materialsymbolssharp/delete_sweep_wght300gradN25_20px.svg

<svg xmlns="http://www.w3.org/2000/svg" height="20" width="20"><path d="M12.375 14.667v-1.25h2.875v1.25Zm0-6.417V7h5.313v1.25Zm0 3.208v-1.25h4.5v1.25ZM3.104 6.833h-.792V5.604h3.146v-1h2.688v.979h3.166v1.25h-.791v8.459H3.104Zm1.25 0v7.209h4.917V6.833Zm0 0v7.209Z"/></svg>

<svg xmlns="http://www.w3.org/2000/svg" height="20" width="20"><path d="M12.375 14.667V13.417H15.25V14.667ZM12.375 8.25V7H17.688V8.25ZM12.375 11.458V10.208H16.875V11.458ZM3.104 6.833H2.312V5.604H5.458V4.604H8.146V5.583H11.312V6.833H10.521V15.292H3.104ZM4.354 6.833V14.042H9.271V6.833ZM4.354 6.833V14.042Z"/></svg>
